X: 32518
T: Planxty Clancy
R: reel
M: 4/4
K: Gmajor
dc|BdBG A2 GA|BcBG D2 GF|EGBc BGcd|cGde d2 dc|
BGDd cGEe|dGFa g2 fe|dcBA GFEF|G2 G2 G2:|
dc|Bdfd cagf|gbdf gfed|cagf gdcB|cEBG GAFD|
BGdG cGeG|DGfG EGce|dcBA GFEF|G2 G2 G2:|

